packages/icons/src/components/ProductIcon/assets/data-orchestrator.svg

<svg width="64" height="64" viewBox="0 0 64 64" fill="none" xmlns="http://www.w3.org/2000/svg">
<path d="M0 16C0 7.16344 7.16344 0 16 0H48C56.8366 0 64 7.16344 64 16V48C64 56.8366 56.8366 64 48 64H16C7.16344 64 0 56.8366 0 48V16Z" fill="#521094" class="fillWeak"/>
<path fill-rule="evenodd" clip-rule="evenodd" d="M48 2H16C8.26801 2 2 8.26801 2 16V48C2 55.732 8.26801 62 16 62H48C55.732 62 62 55.732 62 48V16C62 8.26801 55.732 2 48 2ZM16 0C7.16344 0 0 7.16344 0 16V48C0 56.8366 7.16344 64 16 64H48C56.8366 64 64 56.8366 64 48V16C64 7.16344 56.8366 0 48 0H16Z" fill="#521094" class="fillWeak"/>
<path d="M10.9998 35.4998C10.4476 35.4999 9.99976 35.9476 9.99976 36.4998V51.0008C9.99978 52.6575 11.343 54.0006 12.9998 54.0008H21.5837L20.2917 55.2928C19.9018 55.6832 19.9017 56.3164 20.2917 56.7068C20.6821 57.0972 21.3153 57.0969 21.7058 56.7068L24.6873 53.7263C24.8795 53.5441 24.9997 53.2866 24.9998 53.0008C24.9998 52.8854 24.98 52.7747 24.9441 52.6717C24.9422 52.6661 24.9402 52.6605 24.9382 52.6551C24.9205 52.6069 24.8984 52.5607 24.8738 52.5164C24.8698 52.5091 24.8653 52.502 24.8611 52.4949C24.8353 52.4512 24.807 52.409 24.7751 52.3699L24.7722 52.366L24.7058 52.2928L21.7058 49.2928C21.3153 48.9026 20.6822 48.9023 20.2917 49.2928C19.9018 49.6832 19.9017 50.3164 20.2917 50.7068L21.5857 52.0008H12.9998C12.4476 52.0006 11.9998 51.5529 11.9998 51.0008V36.4998C11.9998 35.9475 11.552 35.4998 10.9998 35.4998Z" fill="#BF95F9" class="fillStrong"/>
<path d="M52.8464 39.0135C52.8367 39.015 52.8269 39.0165 52.8171 39.0183C52.7672 39.0276 52.7187 39.04 52.6716 39.0564C52.6661 39.0583 52.6605 39.0603 52.655 39.0623C52.6055 39.0805 52.5579 39.1022 52.5125 39.1277C52.5077 39.1304 52.5035 39.1338 52.4988 39.1365C52.455 39.162 52.413 39.1898 52.3738 39.2215C52.3714 39.2234 52.3683 39.2244 52.366 39.2263L52.2927 39.2928L49.2927 42.2928C48.9023 42.6833 48.9022 43.3163 49.2927 43.7068C49.6832 44.0971 50.3163 44.0972 50.7068 43.7068L51.9998 42.4138V50.9998C51.9996 51.5519 51.5519 51.9997 50.9998 51.9998H35.9998C35.4477 52 34.9998 52.4477 34.9998 52.9998C34.9999 53.5518 35.4478 53.9995 35.9998 53.9998H50.9998C52.6565 53.9997 53.9996 52.6565 53.9998 50.9998V42.4138L55.2927 43.7068C55.6832 44.0971 56.3163 44.0972 56.7068 43.7068C57.0973 43.3163 57.0971 42.6833 56.7068 42.2928L53.7175 39.3035C53.5358 39.1164 53.2812 38.9998 52.9998 38.9998C52.9476 38.9998 52.8965 39.0057 52.8464 39.0135Z" fill="#BF95F9" class="fillStrong"/>
<path d="M21.7058 7.29275C21.3153 6.90251 20.6822 6.90232 20.2917 7.29275C19.9019 7.68323 19.9017 8.31646 20.2917 8.70681L21.5847 9.99978H12.9998C11.343 9.99994 9.99976 11.343 9.99976 12.9998V26.9998C9.99999 27.5518 10.4477 27.9996 10.9998 27.9998C11.5519 27.9998 11.9995 27.5519 11.9998 26.9998V12.9998C11.9998 12.4476 12.4476 11.9999 12.9998 11.9998H21.5847L20.2917 13.2928C19.9019 13.6832 19.9017 14.3165 20.2917 14.7068C20.6821 15.0971 21.3153 15.0968 21.7058 14.7068L24.697 11.7156C24.7628 11.6515 24.8197 11.5779 24.866 11.4978C24.8679 11.4944 24.8699 11.4905 24.8718 11.4871C24.9526 11.3429 24.9997 11.1768 24.9998 10.9998C24.9998 10.7187 24.8837 10.4647 24.697 10.283L21.7058 7.29275Z" fill="#BF95F9" class="fillStrong"/>
<path d="M35.4998 9.99978C34.9477 10 34.4998 10.4477 34.4998 10.9998C34.4999 11.5518 34.9478 11.9995 35.4998 11.9998H50.9998C51.552 11.9999 51.9998 12.4475 51.9998 12.9998V21.5857L50.7068 20.2928C50.3163 19.9023 49.6832 19.9022 49.2927 20.2928C48.9023 20.6833 48.9022 21.3163 49.2927 21.7068L52.2927 24.7068L52.366 24.7732C52.3683 24.7751 52.3715 24.7762 52.3738 24.7781C52.413 24.8097 52.4551 24.8376 52.4988 24.8631C52.5034 24.8658 52.5078 24.8692 52.5125 24.8719C52.5579 24.8973 52.6056 24.9191 52.655 24.9373C52.6605 24.9393 52.6661 24.9412 52.6716 24.9431C52.7186 24.9595 52.7673 24.972 52.8171 24.9812C52.8268 24.983 52.8367 24.9846 52.8464 24.9861C52.8965 24.9938 52.9476 24.9998 52.9998 24.9998C53.2812 24.9997 53.5358 24.8832 53.7175 24.6961L56.7068 21.7068C57.0973 21.3163 57.0971 20.6833 56.7068 20.2928C56.3163 19.9023 55.6832 19.9022 55.2927 20.2928L53.9998 21.5857V12.9998C53.9998 11.343 52.6566 9.99985 50.9998 9.99978H35.4998Z" fill="#BF95F9" class="fillStrong"/>
<path fill-rule="evenodd" clip-rule="evenodd" d="M32.0002 48C29.2387 48 27.0002 50.2386 27.0002 53C27.0002 55.7614 29.2387 58 32.0002 58C34.7615 57.9999 37.0002 55.7614 37.0002 53C37.0002 50.2386 34.7615 48.0001 32.0002 48ZM32.0002 50C33.657 50.0001 35.0002 51.3432 35.0002 53C35.0002 54.6568 33.657 55.9999 32.0002 56C30.3433 56 29.0002 54.6569 29.0002 53C29.0002 51.3431 30.3433 50 32.0002 50Z" fill="white" class="fill"/>
<path fill-rule="evenodd" clip-rule="evenodd" d="M29.5002 25.9365C29.1909 25.758 28.8095 25.7581 28.5002 25.9365C28.1908 26.1151 28.0003 26.4456 28.0002 26.8027V37.1953C28.0002 37.5525 28.1908 37.8829 28.5002 38.0615C28.8095 38.24 29.1909 38.24 29.5002 38.0615L38.5002 32.8652C38.8095 32.6866 39.0002 32.3562 39.0002 31.999C39.0001 31.6418 38.8095 31.3114 38.5002 31.1328L29.5002 25.9365ZM36.0002 31.999L30.0002 35.4629V28.5352L36.0002 31.999Z" fill="white" class="fill"/>
<path fill-rule="evenodd" clip-rule="evenodd" d="M32.0002 19C24.8205 19 19.0002 24.8203 19.0002 32C19.0002 39.1797 24.8205 45 32.0002 45C39.1798 44.9999 45.0002 39.1797 45.0002 32C45.0002 24.8203 39.1798 19.0001 32.0002 19ZM32.0002 21C38.0752 21.0001 43.0002 25.9249 43.0002 32C43.0002 38.0751 38.0752 42.9999 32.0002 43C25.925 43 21.0002 38.0751 21.0002 32C21.0002 25.9249 25.925 21 32.0002 21Z" fill="white" class="fill"/>
<path fill-rule="evenodd" clip-rule="evenodd" d="M11.7209 26.292C11.3304 25.9018 10.6972 25.9017 10.3068 26.292L5.35759 31.2422C4.96707 31.6327 4.96707 32.2657 5.35759 32.6562L10.3068 37.6064C10.6972 37.9967 11.3304 37.9966 11.7209 37.6064L16.6711 32.6562C17.0614 32.2658 17.0614 31.6327 16.6711 31.2422L11.7209 26.292ZM14.55 31.9492L11.0138 35.4844L7.47868 31.9492L11.0138 28.4141L14.55 31.9492Z" fill="white" class="fill"/>
<path fill-rule="evenodd" clip-rule="evenodd" d="M50.7502 27.1016C50.393 27.1016 50.0626 27.2923 49.884 27.6016L47.634 31.499C47.4554 31.8084 47.4554 32.1897 47.634 32.499L49.884 36.3965C50.0626 36.7057 50.393 36.8965 50.7502 36.8965H55.2502C55.6073 36.8964 55.9377 36.7057 56.1164 36.3965L58.3664 32.499C58.5226 32.2284 58.5421 31.9026 58.425 31.6182L58.3664 31.499L56.1164 27.6016C55.9377 27.2923 55.6073 27.1016 55.2502 27.1016H50.7502ZM54.673 29.1016L56.3459 31.999L54.673 34.8965H51.3283L49.6554 31.999L51.3283 29.1016H54.673Z" fill="white" class="fill"/>
<path fill-rule="evenodd" clip-rule="evenodd" d="M28.5002 6.5C27.9479 6.5 27.5002 6.94772 27.5002 7.5V14.5C27.5002 15.0523 27.9479 15.5 28.5002 15.5H35.5002C36.0524 15.4999 36.5002 15.0522 36.5002 14.5V7.5C36.5002 6.94776 36.0524 6.50007 35.5002 6.5H28.5002ZM34.5002 13.5H29.5002V8.5H34.5002V13.5Z" fill="white" class="fill"/>
</svg>

<svg xmlns="http://www.w3.org/2000/svg" width="64" height="64" fill="none" viewBox="0 0 64 64">
    <path fill="#521094" d="M0 16C0 7.163 7.163 0 16 0h32c8.837 0 16 7.163 16 16v32c0 8.837-7.163 16-16 16H16C7.163 64 0 56.837 0 48z" class="fillWeak"/>
    <path fill="#521094" fill-rule="evenodd" d="M48 2H16C8.268 2 2 8.268 2 16v32c0 7.732 6.268 14 14 14h32c7.732 0 14-6.268 14-14V16c0-7.732-6.268-14-14-14M16 0C7.163 0 0 7.163 0 16v32c0 8.837 7.163 16 16 16h32c8.837 0 16-7.163 16-16V16c0-8.837-7.163-16-16-16z" class="fillWeak" clip-rule="evenodd"/>
    <path fill="#bf95f9" d="M11 35.5a1 1 0 0 0-1 1V51a3 3 0 0 0 3 3h8.584l-1.292 1.293a1 1 0 0 0 1.414 1.414l2.981-2.98a1 1 0 0 0 .187-1.21l-.013-.022a1 1 0 0 0-.086-.125l-.003-.004-.066-.073-3-3a1 1 0 0 0-1.414 1.414L21.586 52H13a1 1 0 0 1-1-1V36.5a1 1 0 0 0-1-1m41.846 3.514-.029.004a1 1 0 0 0-.304.11l-.014.008a1 1 0 0 0-.125.085l-.008.005-.073.067-3 3a1 1 0 1 0 1.414 1.414L52 42.414V51a1 1 0 0 1-1 1H36a1 1 0 0 0 0 2h15a3 3 0 0 0 3-3v-8.586l1.293 1.293a1 1 0 0 0 1.414-1.414l-2.99-2.99a1 1 0 0 0-.87-.29M21.706 7.293a1 1 0 0 0-1.414 1.414L21.585 10H13a3 3 0 0 0-3 3v14a1 1 0 0 0 2 0V13a1 1 0 0 1 1-1h8.585l-1.293 1.293a1 1 0 0 0 1.414 1.414l2.991-2.991a1 1 0 0 0 .169-.218l.006-.01a.995.995 0 0 0-.175-1.205zM35.5 10a1 1 0 0 0 0 2H51a1 1 0 0 1 1 1v8.586l-1.293-1.293a1 1 0 1 0-1.414 1.414l3 3 .073.066.008.005q.059.048.125.085l.014.009a1 1 0 0 0 .142.065l.017.006a1 1 0 0 0 .174.043Q52.921 25 53 25a1 1 0 0 0 .718-.304l2.989-2.99a1 1 0 0 0-1.414-1.413L54 21.586V13a3 3 0 0 0-3-3z" class="fillStrong"/>
    <path fill="#fff" fill-rule="evenodd" d="M32 48a5 5 0 1 0 0 10 5 5 0 0 0 0-10m0 2a3 3 0 1 1 0 6 3 3 0 0 1 0-6m-2.5-24.063a1 1 0 0 0-1.5.866v10.392a1 1 0 0 0 1.5.867l9-5.197a1 1 0 0 0 0-1.732zm6.5 6.062-6 3.464v-6.928z" class="fill" clip-rule="evenodd"/>
    <path fill="#fff" fill-rule="evenodd" d="M32 19c-7.18 0-13 5.82-13 13s5.82 13 13 13 13-5.82 13-13-5.82-13-13-13m0 2c6.075 0 11 4.925 11 11s-4.925 11-11 11-11-4.925-11-11 4.925-11 11-11m-20.28 5.292a1 1 0 0 0-1.413 0l-4.95 4.95a1 1 0 0 0 0 1.414l4.95 4.95a1 1 0 0 0 1.414 0l4.95-4.95a1 1 0 0 0 0-1.414zm2.83 5.657-3.536 3.535-3.535-3.535 3.535-3.535zm36.2-4.847a1 1 0 0 0-.866.5l-2.25 3.897a1 1 0 0 0 0 1l2.25 3.898a1 1 0 0 0 .866.5h4.5a1 1 0 0 0 .866-.5l2.25-3.898a1 1 0 0 0 .059-.88l-.059-.12-2.25-3.897a1 1 0 0 0-.866-.5zm3.923 2 1.673 2.897-1.673 2.898h-3.345l-1.673-2.898 1.673-2.897zM28.5 6.5a1 1 0 0 0-1 1v7a1 1 0 0 0 1 1h7a1 1 0 0 0 1-1v-7a1 1 0 0 0-1-1zm6 7h-5v-5h5z" class="fill" clip-rule="evenodd"/>
</svg>
